!!!OTL: Qiao luo da gu nao yang chun
!!!ARE: Asia, China,ÿGuangxi, Lingguei
!! II, 518
!!!SCT: C1523
!!!YEM: Copyright 1995, estate of Helmut Schaffrath.
**kern
*ICvox
*Ivox
*M2/4
*k[b-]
*F:
{8cc
8dd
4a
=1
8gg
16ee
16gg
8aa
8aa
=2
2dd
=3
8gg
8aa
8ff
8gg
=4
8gg
8gg
8gg
8ff
=5
2dd}
=6
{8cc
8dd
4a
=7
8gg
16aa
16gg
8ff
8dd
=8
2cc
=9
8gg
8aa
8ff
8gg
=10
8gg
8ff
8dd
8cc
=11
2dd}
=12
{8cc
8dd
4a
=13
4gg
8gg
8gg
=14
8gg
8ff
8ff
8dd
=15
2dd}
=16
{8cc
8dd
4a
=17
8gg
8aa
8gg
8aa
=18
2dd
=19
8gg
8aa
8gg
8gg
=20
8ff
8dd
4dd}
=21
{8cc
8dd
4a
=22
8gg
8gg
8gg
8aa
=23
2dd
=24
8gg
8dd
8ff
8gg
=25
8ff
8ff
4dd}
=26
{8cc
8dd
4a
=27
8gg
8aa
4dd
=28
4gg
4aa
=29
4gg
8ff
8ff
=30
8ff
8dd
8cc
8dd
=31
2dd}
=32
{8cc
8dd
8ff
8dd
=33
4gg
8gg
8gg
=34
2dd}
==
!!!AGN: Xiaodiao, Fengsuge, Wadige
!!!AMT: simple duple
!!!AIN: vox
!!!EED: Helmut Schaffrath
!!!EEV: 1.0
*-
